assets/img/logo-mob.svg

<svg width="127" height="35" viewBox="0 0 127 35" fill="none" xmlns="http://www.w3.org/2000/svg">
<path d="M12.9844 11.7718V24.1206H11.4029V22.2889C10.7306 23.0986 10.0622 23.5081 9.22178 23.9167C8.389 24.3253 7.38802 24.4384 6.3948 24.4384C4.62993 24.4384 3.121 23.8066 1.86801 22.543C0.622672 21.2718 0 19.7282 0 17.9122C0 16.134 0.630312 14.6131 1.89094 13.3494C3.15156 12.0858 4.66813 11.454 6.44064 11.454C7.46442 11.454 8.39664 11.5904 9.22178 12.0217C10.0546 12.453 10.7764 12.9246 11.4029 13.7872V11.7718H12.9844ZM6.5667 12.9862C5.67281 12.9862 4.84767 13.2057 4.0913 13.6445C3.33492 14.0758 2.73135 14.685 2.28058 15.4719C1.83745 16.2588 1.61589 17.0912 1.61589 17.9689C1.61589 18.8391 1.84127 19.6714 2.29204 20.4659C2.74281 21.2604 3.34638 21.8809 4.10276 22.3273C4.86677 22.7662 5.68427 22.9856 6.55524 22.9856C7.43386 22.9856 8.26663 22.7662 9.05357 22.3273C9.8405 21.8884 10.4441 21.2945 10.8643 20.5454C11.2921 19.7963 11.5061 18.9526 11.5061 18.0143C11.5061 16.5842 11.0285 15.3887 10.0735 14.4277C9.12615 13.4667 7.95721 12.9862 6.5667 12.9862Z" fill="white"/>
<path d="M15.1386 6.35507V24.1206H16.7201V22.2889C17.3925 23.0986 18.0609 23.5081 18.9013 23.9167C19.734 24.3253 20.735 24.4384 21.7282 24.4384C23.4931 24.4384 25.002 23.8066 26.255 22.5429C27.5004 21.2717 28.123 19.7281 28.123 17.9121C28.123 16.134 27.4927 14.6131 26.2321 13.3494C24.9715 12.0858 23.4549 11.454 21.6824 11.454C20.6586 11.454 19.7264 11.5904 18.9013 12.0217C18.0685 12.453 17.3466 12.9246 16.7201 13.7872V6.35507H15.1386ZM21.5563 12.9862C22.4502 12.9862 23.2754 13.2057 24.0318 13.6445C24.7881 14.0758 25.3917 14.6849 25.8425 15.4719C26.2856 16.2588 26.5072 17.0912 26.5072 17.9689C26.5072 18.8391 26.2818 19.6714 25.831 20.4659C25.3802 21.2604 24.7767 21.8809 24.0203 22.3273C23.2563 22.7662 22.4388 22.9856 21.5678 22.9856C20.6892 22.9856 19.8564 22.7662 19.0695 22.3273C18.2825 21.8884 17.679 21.2944 17.2588 20.5453C16.8309 19.7962 16.617 18.9526 16.617 18.0143C16.617 16.5842 17.0945 15.3886 18.0495 14.4277C18.9969 13.4667 20.1658 12.9862 21.5563 12.9862Z" fill="white"/>
<circle cx="52.04" cy="17.5" r="17.5" fill="#6ADF91"/>
<path d="M59.6237 10.5L52.941 26.25L42.707 16.5269L59.6237 10.5Z" fill="white"/>
<path d="M94.7584 19.7129L96.1025 20.4191C95.6621 21.2848 95.1533 21.9834 94.5762 22.515C93.9991 23.0465 93.3498 23.4528 92.6284 23.7337C91.907 24.0071 91.0907 24.1438 90.1794 24.1438C88.1595 24.1438 86.58 23.4831 85.441 22.1618C84.3019 20.833 83.7324 19.3332 83.7324 17.6626C83.7324 16.0907 84.2146 14.6897 85.179 13.4595C86.4016 11.8952 88.038 11.1131 90.0883 11.1131C92.1994 11.1131 93.8852 11.9142 95.1457 13.5165C96.0418 14.6479 96.4974 16.0603 96.5126 17.7537H85.3727C85.403 19.1965 85.8624 20.3811 86.7509 21.3076C87.6394 22.2264 88.7366 22.6858 90.0428 22.6858C90.673 22.6858 91.2843 22.5757 91.8766 22.3555C92.4765 22.1353 92.9853 21.8429 93.403 21.4784C93.8206 21.1139 94.2724 20.5254 94.7584 19.7129ZM94.7584 16.3755C94.5458 15.525 94.2345 14.8454 93.8244 14.3366C93.4219 13.8278 92.8866 13.4177 92.2183 13.1064C91.5501 12.7951 90.8477 12.6394 90.1111 12.6394C88.8961 12.6394 87.852 13.0305 86.9787 13.8126C86.3408 14.3821 85.8586 15.2364 85.5321 16.3755H94.7584Z" fill="white"/>
<path d="M111.273 11.4834V23.8322H109.691V22.0005C109.019 22.8102 108.35 23.2197 107.51 23.6283C106.677 24.0369 105.676 24.15 104.683 24.15C102.918 24.15 101.409 23.5182 100.156 22.2546C98.9108 20.9833 98.2881 19.4397 98.2881 17.6237C98.2881 15.8456 98.9184 14.3247 100.179 13.061C101.44 11.7974 102.956 11.1656 104.729 11.1656C105.753 11.1656 106.685 11.302 107.51 11.7333C108.343 12.1646 109.065 12.6362 109.691 13.4988V11.4834H111.273ZM104.855 12.6978C103.961 12.6978 103.136 12.9173 102.379 13.3561C101.623 13.7874 101.019 14.3966 100.569 15.1835C100.126 15.9704 99.904 16.8028 99.904 17.6805C99.904 18.5507 100.129 19.383 100.58 20.1775C101.031 20.972 101.634 21.5925 102.391 22.0389C103.155 22.4778 103.972 22.6972 104.843 22.6972C105.722 22.6972 106.555 22.4778 107.342 22.0389C108.129 21.6 108.732 21.006 109.152 20.2569C109.58 19.5078 109.794 18.6642 109.794 17.7259C109.794 16.2958 109.317 15.1003 108.362 14.1393C107.414 13.1783 106.245 12.6978 104.855 12.6978Z" fill="white"/>
<path d="M126.412 6.06668V23.8322H124.831V22.0005C124.158 22.8102 123.49 23.2198 122.65 23.6284C121.817 24.037 120.816 24.15 119.823 24.15C118.058 24.15 116.549 23.5182 115.296 22.2546C114.05 20.9834 113.428 19.4398 113.428 17.6238C113.428 15.8456 114.058 14.3247 115.319 13.061C116.579 11.7974 118.096 11.1656 119.868 11.1656C120.892 11.1656 121.824 11.302 122.65 11.7333C123.482 12.1646 124.204 12.6362 124.831 13.4988V6.06668H126.412ZM119.994 12.6978C119.101 12.6978 118.275 12.9173 117.519 13.3561C116.763 13.7874 116.159 14.3966 115.708 15.1835C115.265 15.9704 115.044 16.8028 115.044 17.6805C115.044 18.5507 115.269 19.383 115.72 20.1775C116.171 20.972 116.774 21.5925 117.53 22.0389C118.295 22.4778 119.112 22.6972 119.983 22.6972C120.862 22.6972 121.694 22.4778 122.481 22.0389C123.268 21.6 123.872 21.0061 124.292 20.257C124.72 19.5079 124.934 18.6642 124.934 17.7259C124.934 16.2958 124.456 15.1003 123.501 14.1393C122.554 13.1783 121.385 12.6978 119.994 12.6978Z" fill="white"/>
<path d="M80.3173 23.9918L82.5018 23.9918L82.5018 22.5767L80.3173 22.5767C80.0059 22.5767 79.7078 22.5135 79.4284 22.3849C79.1606 22.2692 78.9226 22.1089 78.7181 21.9045C78.5121 21.6984 78.3509 21.4582 78.235 21.1878C78.1165 20.9113 78.0575 20.6196 78.0575 20.3169L78.0575 6.20163L76.6309 6.20163L76.6309 20.3169C76.6309 20.8358 76.7274 21.3124 76.9167 21.7518C77.1094 22.1992 77.3723 22.584 77.7054 22.9103L77.7089 22.9137C78.0441 23.249 78.4341 23.5128 78.8824 23.7059C79.3218 23.8952 79.7984 23.9918 80.3173 23.9918Z" fill="white"/>
<path fill-rule="evenodd" clip-rule="evenodd" d="M82.6639 24.1538L82.6639 22.4147L80.3172 22.4147C80.0284 22.4147 79.7535 22.3561 79.4961 22.2377L79.4926 22.2361C79.2431 22.1283 79.0223 21.9795 78.8327 21.7899C78.6416 21.5987 78.4919 21.3759 78.3839 21.124C78.2742 20.868 78.2195 20.5981 78.2195 20.3169L78.2195 6.03957L76.4687 6.03957L76.4687 20.3169C76.4687 20.8565 76.5692 21.3551 76.7678 21.816C76.9685 22.2818 77.243 22.6841 77.5914 23.0255L77.5942 23.0283C77.9443 23.3784 78.3515 23.6537 78.8182 23.8548C79.2791 24.0533 79.7776 24.1538 80.3172 24.1538L82.6639 24.1538ZM77.7088 22.9138L77.7054 22.9103C77.3722 22.584 77.1094 22.1993 76.9166 21.7518C76.7273 21.3124 76.6308 20.8358 76.6308 20.3169L76.6308 6.20164L78.0574 6.20164L78.0574 20.3169C78.0574 20.6196 78.1164 20.9113 78.2349 21.1878C78.3508 21.4582 78.512 21.6984 78.7181 21.9045C78.9226 22.1089 79.1605 22.2692 79.4283 22.3849C79.7078 22.5135 80.0059 22.5767 80.3172 22.5767L82.5018 22.5767L82.5018 23.9918L80.3172 23.9918C79.7984 23.9918 79.3218 23.8952 78.8823 23.7059C78.434 23.5128 78.044 23.249 77.7088 22.9138Z" fill="white"/>
</svg>

<svg width="127" height="35" fill="none" xmlns="http://www.w3.org/2000/svg"><path d="M12.984 11.772V24.12h-1.581v-1.832c-.672.81-1.34 1.22-2.181 1.628-.833.408-1.834.521-2.827.521-1.765 0-3.274-.631-4.527-1.895C.623 21.272 0 19.728 0 17.913c0-1.779.63-3.3 1.89-4.564 1.262-1.263 2.778-1.895 4.55-1.895 1.024 0 1.957.136 2.782.568.833.431 1.554.903 2.18 1.765v-2.015h1.582zm-6.417 1.214c-.894 0-1.72.22-2.476.659a4.807 4.807 0 00-1.81 1.827 5.013 5.013 0 00-.665 2.497c0 .87.225 1.702.676 2.497a4.954 4.954 0 001.81 1.861 4.844 4.844 0 002.453.659c.879 0 1.712-.22 2.499-.659a4.587 4.587 0 001.81-1.782c.428-.749.642-1.592.642-2.53 0-1.43-.478-2.626-1.433-3.587-.947-.961-2.116-1.442-3.506-1.442zm8.572-6.631v17.766h1.581v-1.832c.672.81 1.34 1.22 2.181 1.628.833.408 1.834.521 2.827.521 1.765 0 3.274-.631 4.527-1.895 1.245-1.271 1.868-2.815 1.868-4.63 0-1.779-.63-3.3-1.89-4.564-1.262-1.263-2.778-1.895-4.55-1.895-1.024 0-1.957.136-2.782.568-.832.431-1.554.903-2.18 1.765V6.355h-1.582zm6.417 6.631c.894 0 1.72.22 2.476.659a4.807 4.807 0 011.81 1.827c.444.787.665 1.62.665 2.497 0 .87-.225 1.702-.676 2.497a4.954 4.954 0 01-1.81 1.861 4.844 4.844 0 01-2.453.659c-.879 0-1.712-.22-2.498-.659a4.586 4.586 0 01-1.811-1.782c-.428-.749-.642-1.592-.642-2.53 0-1.43.477-2.626 1.432-3.587.948-.961 2.117-1.442 3.507-1.442z" fill="#fff"/><circle cx="52.04" cy="17.5" r="17.5" fill="#6ADF91"/><path d="M59.624 10.5L52.94 26.25l-10.234-9.723L59.624 10.5zm35.134 9.213l1.345.706c-.44.866-.95 1.564-1.527 2.096a6.143 6.143 0 01-1.948 1.219c-.721.273-1.537.41-2.449.41-2.02 0-3.599-.66-4.738-1.982-1.14-1.329-1.709-2.829-1.709-4.5a6.63 6.63 0 011.447-4.202c1.223-1.565 2.859-2.347 4.91-2.347 2.11 0 3.796.801 5.057 2.404.896 1.13 1.351 2.543 1.367 4.237h-11.14c.03 1.442.49 2.627 1.378 3.554.888.918 1.986 1.378 3.292 1.378.63 0 1.241-.11 1.834-.33a4.82 4.82 0 001.526-.878c.418-.364.87-.953 1.355-1.765zm0-3.338c-.212-.85-.523-1.53-.934-2.038-.402-.51-.937-.92-1.606-1.23a4.932 4.932 0 00-2.107-.468c-1.215 0-2.259.392-3.132 1.174-.638.57-1.12 1.423-1.447 2.562h9.226zm16.515-4.892v12.35h-1.582V22c-.672.81-1.341 1.219-2.181 1.627-.833.409-1.834.522-2.827.522-1.765 0-3.274-.632-4.527-1.895-1.245-1.272-1.868-2.815-1.868-4.631 0-1.778.63-3.3 1.891-4.563 1.261-1.264 2.777-1.895 4.55-1.895 1.024 0 1.956.136 2.781.567.833.432 1.555.903 2.181 1.766v-2.016h1.582zm-6.418 1.215a4.85 4.85 0 00-2.476.658 4.803 4.803 0 00-1.81 1.828 5.015 5.015 0 00-.665 2.496c0 .87.225 1.703.676 2.497a4.952 4.952 0 001.811 1.862 4.842 4.842 0 002.452.658c.879 0 1.712-.22 2.499-.658a4.583 4.583 0 001.81-1.782c.428-.75.642-1.593.642-2.531 0-1.43-.477-2.626-1.432-3.587-.948-.96-2.117-1.441-3.507-1.441zm21.557-6.631v17.765h-1.581V22c-.673.81-1.341 1.22-2.181 1.628-.833.409-1.834.522-2.827.522-1.765 0-3.274-.632-4.527-1.895-1.246-1.272-1.868-2.815-1.868-4.631 0-1.778.63-3.3 1.891-4.563 1.26-1.264 2.777-1.895 4.549-1.895 1.024 0 1.956.136 2.782.567.832.432 1.554.903 2.181 1.766V6.067h1.581zm-6.418 6.63c-.893 0-1.719.22-2.475.66a4.812 4.812 0 00-1.811 1.827 4.986 4.986 0 00.012 4.994 4.956 4.956 0 001.81 1.86 4.848 4.848 0 002.453.66 5.05 5.05 0 002.498-.66 4.585 4.585 0 001.811-1.781c.428-.75.642-1.593.642-2.531 0-1.43-.478-2.626-1.433-3.587-.947-.96-2.116-1.441-3.507-1.441zM80.317 23.992h2.185v-1.415h-2.185c-.311 0-.61-.064-.889-.192a2.27 2.27 0 01-1.193-1.197 2.193 2.193 0 01-.177-.871V6.202H76.63v14.115a3.583 3.583 0 001.074 2.593l.004.004c.335.335.725.599 1.173.792.44.19.916.286 1.435.286z" fill="#fff"/><path fill-rule="evenodd" clip-rule="evenodd" d="M82.664 24.154v-1.74h-2.347c-.289 0-.563-.058-.82-.176l-.004-.002a2.107 2.107 0 01-1.11-1.112 2.03 2.03 0 01-.163-.807V6.04h-1.751v14.277a3.744 3.744 0 001.122 2.709l.003.002c.35.35.758.626 1.224.827.461.198.96.299 1.5.299h2.346zm-4.955-1.24l-.004-.004a3.588 3.588 0 01-1.074-2.593V6.202h1.426v14.115c0 .303.06.594.178.87a2.27 2.27 0 001.193 1.198c.28.128.578.192.89.192h2.184v1.415h-2.185a3.59 3.59 0 01-1.435-.286 3.724 3.724 0 01-1.173-.792z" fill="#fff"/></svg>
